assets/images/depfin-study/icon-ok.svg

<svg xmlns="http://www.w3.org/2000/svg" width="21" height="21"><path fill-rule="evenodd" fill="#83CA14" d="M10.5 21C4.701 21 0 16.299 0 10.5S4.701 0 10.5 0 21 4.701 21 10.5 16.299 21 10.5 21zm5.099-14.633a1.4 1.4 0 0 0-1.928 0l-3.914 6.23-2.477-2.409a1.401 1.401 0 0 0-1.929 0 1.278 1.278 0 0 0 0 1.855L8.9 15.495c.027.026.064.035.093.059.016.017.021.039.038.055a1.403 1.403 0 0 0 1.929 0l4.639-7.387a1.276 1.276 0 0 0 0-1.855z"/></svg>

<svg        xmlns="http://www.w3.org/2000/svg"
        xmlns:xlink="http://www.w3.org/1999/xlink"
        width="21px" height="21px">
    <path fill-rule="evenodd"  fill="rgb(131, 202, 20)"
          d="M10.500,21.000 C4.701,21.000 -0.000,16.299 -0.000,10.500 C-0.000,4.701 4.701,0.000 10.500,0.000 C16.299,0.000 21.000,4.701 21.000,10.500 C21.000,16.299 16.299,21.000 10.500,21.000 ZM15.599,6.367 C15.067,5.854 14.203,5.854 13.671,6.367 L9.757,12.597 L7.280,10.188 C6.747,9.675 5.884,9.675 5.351,10.188 C4.819,10.700 4.819,11.530 5.351,12.043 L8.900,15.495 C8.927,15.521 8.964,15.530 8.993,15.554 C9.009,15.571 9.014,15.593 9.031,15.609 C9.564,16.121 10.427,16.121 10.960,15.609 L15.599,8.222 C16.132,7.710 16.132,6.879 15.599,6.367 Z"/>
</svg>
